X:1
T:Be so nom Bangis of tom the Corne to Malse #158
Z:id:hn-polka-89
M:2/4
L:1/8
K:A
A>A B/A/G/A/|BA BA/B/|dB dB/B/|AB cB/A/|GA Bd/e/|dB B/A/G/A/|1 AG GB/c/:|2 BG GA||
P:variation 29
D:D Danne
Z:id:hn-polka-86
M:2/4
L:1/8
K:D
de dB|AB cB|AB BA|BA BA|BA Bd|ef/e/ dB|1 BA AB/c/:|2 BA Bd|e2 ef|ed e>f|ed cB|A2 AB/c/|dB AB/c/|ed cB|cA AB/c/|dB AB/c/|
dB Bd/B/|dB BA/B/|dB AB/c/|Bd Bc/d/|eA cB/A/|BA GB/d/|ef ec/e/|fd dB|AB AG|
AB AB/c/|dB AB|Bc AB/c/|dB AB/A/|BA BG/B/|AB cB/A/|BA Bd/e/|fd ef|fe fd|ef ed|e2 ed/B/|A2 AG||
<end>

---------------------
T = 1
lstm100adam0.001

